logos/material-ui.svg

<?xml version="1.0" encoding="UTF-8"?>
<svg width="256px" height="222px" viewBox="0 0 256 222" version="1.1" xmlns="http://www.w3.org/2000/svg" preserveAspectRatio="xMidYMid">
    <title>Material UI</title>
    <g>
        <path d="M215.77133,151.106936 C217.972601,149.842814 219.333135,147.501178 219.341207,144.962766 L219.46921,103.809626 C219.477282,101.271214 220.837816,98.9295789 223.039087,97.6654561 L245.34726,84.8508789 C247.547696,83.5872191 250.254746,83.5917849 252.450905,84.8628601 C254.647065,86.1339354 256.00001,88.4789137 256.00001,91.016383 L256.00001,165.834455 C256.00001,168.380496 254.637991,170.732032 252.430123,171.99996 L168.239347,220.356855 C166.051231,221.613013 163.361345,221.61572 161.170707,220.363966 L95.0995431,182.574475 C92.8839933,181.308917 91.5162669,178.953388 91.5154439,176.401859 L91.5154439,138.67637 C91.5154439,138.633702 91.565223,138.605257 91.6078909,138.626591 C91.6434474,138.647925 91.6932266,138.626591 91.6932266,138.576812 L91.6932266,138.534144 C91.6932266,138.505698 91.7074492,138.477253 91.7358944,138.463031 L146.151624,107.20172 C146.201403,107.173275 146.180069,107.095051 146.123179,107.095051 C146.091759,107.095051 146.066288,107.06958 146.066288,107.03816 L146.172958,70.0522468 C146.183088,67.5065741 144.831682,65.1496665 142.629578,63.8724464 C140.427474,62.5952263 137.710619,62.5925422 135.505996,63.8654087 L95.0639866,87.1691653 C92.8673575,88.4340112 90.1635302,88.4340112 87.9669011,87.1691653 L47.3968885,63.8085183 C45.1971104,62.5418586 42.4889542,62.5437952 40.2909901,63.8135998 C38.0930259,65.0834043 36.7385654,67.4285164 36.7370376,69.9669111 L36.7370376,136.813207 C36.7387558,139.348834 35.3902194,141.693555 33.1976623,142.967173 C31.0051051,144.240791 28.3002632,144.250606 26.0985207,142.992934 L3.58411931,130.121466 C1.3641505,128.853389 -0.00426658054,126.49124 9.99460175e-06,123.934628 L0.199136663,7.09583624 C0.204651844,4.56090773 1.5591396,2.22057417 3.75437523,0.952964814 C5.94961085,-0.314644544 8.65364265,-0.317848645 10.8518762,0.944554738 L87.9740124,45.2408928 C90.1670185,46.5002863 92.8638692,46.5002863 95.0568753,45.2408928 L172.157678,0.944554738 C174.359214,-0.31973876 177.067777,-0.314493898 179.264401,0.958316198 C181.461025,2.23112629 182.812507,4.57843078 182.810417,7.11717016 L182.810417,123.984407 C182.81143,126.528977 181.452781,128.880171 179.247652,130.149911 L138.869644,153.403889 C136.662046,154.676517 135.304094,157.033044 135.309969,159.581188 C135.315844,162.129332 136.684646,164.479573 138.89809,165.742008 L161.170707,178.421471 C163.360787,179.66831 166.047195,179.662899 168.232236,178.407248 L215.77133,151.106936 Z M220.44346,46.2720325 C220.445482,48.8322978 221.823612,51.1938426 224.051689,52.4550461 C226.279766,53.7162497 229.013809,53.6824011 231.20998,52.3664235 L252.543904,39.566069 C254.686151,38.2824056 255.998026,35.9690782 256,33.4716779 L256,7.38739987 C255.995421,4.82840659 254.616286,2.46920411 252.388682,1.20974 C250.161079,-0.049724108 247.42856,-0.0152086031 245.23348,1.30012014 L223.899555,14.1004747 C221.757309,15.3841381 220.445433,17.6974655 220.44346,20.1948657 L220.44346,46.2791438 L220.44346,46.2720325 Z" fill="#007FFF"></path>
    </g>
</svg>

<svg preserveAspectRatio="xMidYMid" viewBox="0 0 256 222" xmlns="http://www.w3.org/2000/svg">
  <path fill="#007FFF" d="M215.771 151.107a7.111 7.111 0 0 0 3.57-6.144l.128-41.153a7.111 7.111 0 0 1 3.57-6.145l22.308-12.814A7.111 7.111 0 0 1 256 91.016v74.818a7.11 7.11 0 0 1-3.57 6.166l-84.19 48.357a7.111 7.111 0 0 1-7.07.007l-66.07-37.79a7.111 7.111 0 0 1-3.585-6.172v-37.726c0-.042.05-.07.093-.05.035.022.085 0 .085-.05v-.042c0-.028.014-.057.043-.071l54.416-31.261c.05-.029.028-.107-.029-.107a.057.057 0 0 1-.057-.057l.107-36.986a7.111 7.111 0 0 0-10.667-6.187L95.064 87.17a7.111 7.111 0 0 1-7.097 0l-40.57-23.36a7.111 7.111 0 0 0-10.66 6.158v66.846a7.111 7.111 0 0 1-10.638 6.18L3.584 130.12A7.111 7.111 0 0 1 0 123.935L.2 7.095A7.111 7.111 0 0 1 10.851.946L87.974 45.24a7.111 7.111 0 0 0 7.083 0l77.1-44.296a7.111 7.111 0 0 1 10.653 6.172v116.867a7.111 7.111 0 0 1-3.562 6.166l-40.378 23.254a7.111 7.111 0 0 0 .028 12.338l22.273 12.68a7.111 7.111 0 0 0 7.061-.015l47.54-27.3Zm4.672-104.835a7.111 7.111 0 0 0 10.767 6.094l21.334-12.8A7.111 7.111 0 0 0 256 33.472V7.387A7.111 7.111 0 0 0 245.233 1.3L223.9 14.1a7.111 7.111 0 0 0-3.457 6.095v26.084-.007Z"/>
</svg>
